svgs/sharp-regular/pipe-section.svg

<svg xmlns="http://www.w3.org/2000/svg" viewBox="0 0 640 512"><!--! Font Awesome Pro 6.6.0 by @fontawesome - https://fontawesome.com License - https://fontawesome.com/license (Commercial License) Copyright 2024 Fonticons, Inc. --><path d="M48 120l0-24L0 96l0 24 0 8 0 24 0 24L0 336l0 24 0 24 0 8 0 24 48 0 0-24 0-8 544 0 0 8 0 24 48 0 0-24 0-8 0-24 0-24 0-160 0-24 0-24 0-8 0-24-48 0 0 24 0 8-272 0L48 128l0-8zm0 56l272 0 272 0 0 160L48 336l0-160z"/></svg>

<svg xmlns="http://www.w3.org/2000/svg" viewBox="0 0 640 512"><!--! Font Awesome Pro 6.4.2 by @fontawesome - https://fontawesome.com License - https://fontawesome.com/license (Commercial License) Copyright 2023 Fonticons, Inc. --><path d="M48 120V96H0v24 8 24 24V336v24 24 8 24H48V392v-8H592v8 24h48V392v-8V360 336 176 152 128v-8V96H592v24 8H320 48v-8zm0 56H320 592V336H48V176z"/></svg>
